X:545
T:Oakleigh House
C:Wright, c 1740.
L:1/4
M:2/2
S:Colin Hume's website,  colinhume.com  - chords can also be printed below the stave.
Q:1/2=106
K:Dm
%%center to the tune "Old Oxford"
P:A
|: "Dm"D/E/F/G/ AD | "A7"F/E/D/^C/ "Dm"D2 | "Dm"D/E/F/G/ Ad | "A7"^cd e2 |\
"Dm"fe/f/ "C"gf/e/ | "Bb"fe/d/ "A7"^c=B/c/ | "Dm"dA "Gm"_B/A/G/F/ | "A7"E2 "Dm"D2 :|
P:B
|: "F"FA FA | "F"F/G/A/B/ cB/A/ | "Gm"GB GB | "C"G/A/B/c/ d3/e/ |\
"F"fe/f/ "C/E"gf/e/ | "Dm"fe/d/ "A7/C#"^c2 | "Dm"dA "Gm"B/A/G/F/ | "A7"E2 "Dm"D2 :|

